modules/map-icons/icons/casino.svg

<svg version="1.2" baseProfile="tiny" xmlns="http://www.w3.org/2000/svg" width="50" height="50" viewBox="0 0 50 50" overflow="inherit"><path d="M49 10.489c.604-.457 1-1.173 1-1.989 0-1.381-1.119-2.5-2.5-2.5s-2.5 1.119-2.5 2.5c0 .815.396 1.532 1 1.989v15.511h-9v8h10v-.297c1.465-.594 2.5-2.024 2.5-3.703 0-.691-.191-1.332-.5-1.899v-17.612zm-43 6.511c1.021 0 1.73.172 3 0 0 0-4.016 2.666-4.016 6h5.016s.006-5.554 3-9l-1-1s-2 1-4 0c0 0-2 0-4 1v-1h-1v6h1s0-2 2-2zm14 0c1.021 0 1.73.172 3 0 0 0-4.016 2.666-4.016 6h5.016s.006-5.554 3-9l-1-1s-2 1-4 0c0 0-2 0-4 1v-1h-1v6h1s0-2 2-2zm18-10v-2h-12.12c-.456-2.002-2.239-3.5-4.38-3.5s-3.924 1.498-4.38 3.5h-12.12v2h-5v41h44v-41h-6zm-22 4h12v14h-12v-14zm-14 0h12v14h-12v-14zm36 32h-33v-7h33v7zm4-18h-12v-14h12v14zm-8-8c1.021 0 1.73.172 3 0 0 0-4.016 2.666-4.016 6h5.016s.006-5.554 3-9l-1-1s-2 1-4 0c0 0-2 0-4 1v-1h-1v6h1s0-2 2-2z"/></svg>

<svg version="1.2" baseProfile="tiny" xmlns="http://www.w3.org/2000/svg" width="50" height="50" overflow="inherit"><path d="M49 10.489c.604-.457 1-1.173 1-1.989a2.5 2.5 0 1 0-5 0 2.49 2.49 0 0 0 1 1.989V26h-9v8h10v-.297A3.994 3.994 0 0 0 49.5 30c0-.691-.191-1.332-.5-1.899V10.489zM6 17c1.021 0 1.73.172 3 0 0 0-4.016 2.666-4.016 6H10s.006-5.554 3-9l-1-1s-2 1-4 0c0 0-2 0-4 1v-1H3v6h1s0-2 2-2zm14 0c1.021 0 1.73.172 3 0 0 0-4.016 2.666-4.016 6H24s.006-5.554 3-9l-1-1s-2 1-4 0c0 0-2 0-4 1v-1h-1v6h1s0-2 2-2zM38 7V5H25.88c-.456-2.002-2.239-3.5-4.38-3.5S17.576 2.998 17.12 5H5v2H0v41h44V7h-6zm-22 4h12v14H16V11zM2 11h12v14H2V11zm36 32H5v-7h33v7zm4-18H30V11h12v14zm-8-8c1.021 0 1.73.172 3 0 0 0-4.016 2.666-4.016 6H38s.006-5.554 3-9l-1-1s-2 1-4 0c0 0-2 0-4 1v-1h-1v6h1s0-2 2-2z"/></svg>
